X: 041
T: Minuetto 2 Rondo
C: Ignatius Sancho (1775)
B: "Minuets Cotillons & Country Dances", 1775 p.4 #1
S: https://www.bl.uk/collection-items/minuets-cotillons-and-country-dances-by-ignatius-sancho#
N: For ABC version 1, which doesn't handle multiple voices on a staff.
N: The B strain really is missing a note in the last measure of the Viol2 part. (Try F or A if you like.)
N: The booklet's Corni parts have a C-clef on the 4th line (middle=A), which most modern players 
N: can't read very well. They were changed to treble in this version to make it more accessible.
N: Modern horn players may have Bb instruments, so you'll have to transpose their music.
N: The Corni parts don't play in the B and C strains; I found that explicitly naming the strains
N: persuaded all available ABC software to display only the instruments in each strain (no empty staffs).
R: minuet
Z: 2020 John Chambers <jc:trillian.mit.edu>
M: 3/4
L: 1/8
K: Bb
V: 1 nm=Corni1 snm=C1 clef=treble middle=B staves=2
V: 2 nm=Corni2 snm=C2 clef=treble middle=B
V: 3 nm=Viol1  snm=V1 clef=treble middle=B staves=2
V: 4 nm=Viol2  snm=V2 clef=treble middle=B
V: 5 nm=Bassi  snm=B  clef=bass   middle=d
%%score (1 2) (3 4) 5
% - - - - - - - - - -
P: A:
[V:1] |: d4 c2 | d2  z2 z2 | f2 f2 d2 | c4 d2 | d4 c2 | d2 z2 z2 | B>c d2 c2 | HB6 :|
[V:2] |: B4 F2 | B,2 z2 z2 | d2 d2 B2 | F4 B2 | B4 F2 | B2 z2 z2 | B2  F2 F2 | HB,6 :|
[V:3] |: d4(c3/d//e//) | (dc)(BA)B2 | FBdBFd | c3d/e/ dz | d4c3/d//e// | dcBABF | G<gf<ed<c | HB6 :|
[V:4] |: F2 B2 A2 | B2 z2 z2 | FBdBFB | A3 B/c/ Bz | F2 B2 A2 | B2 z2 F2 | G<ed<cB<A | HB6 :|
[V:5] |: B2 d2 f2 | b2 z2 z2 | z2 b2 B2 | f2 F2 B2 | B2 d2 f2 | b2 z2 d2 | e2 f2 F2  | HB6 :|
% - - - - - - - - - -
P: B:
[V:3] |: z6         | z6     | z6     | z6      | bagabg  | agfgaf | g3/a//b// agf=e | f6 :|
[V:4] |: d>ed>ed>=e | f2c2f2 | g2c2B2 | A>Bc2z2 | gf=efge | f2ABcA | B3/c//d// cBAG  | z4 "^d.C."z2 :|
[V:5] |: B2 d2 f2   | A2c2f2 |=e2g2c'2| f2ac'af | c2c,2z2 | f2F2z2 | b2c'2c2 | fgfe"^d.C."dc :|
% - - - - - - - - - -
P: C:
[V:3] |: d>e d2 c2 | B>c B2 A2 | G2 g2 f2 | e2 d2 z2 | (gd)(bg)Tg2 | (gd)(bg)Tg2 | (Ae)(dc)(BA)  | G6 :|
[V:4] |: B>c B2 A2 | G>A G2^F2 | G2 e2 d2 | c2 B2 z2 | z6          | z6          | (Ac)(BA)(G^F) |"^d.C."G6 :|
[V:5] |: G2  B2 d2 | g2 b2 d'2 | e4   =B2 | c2 g2 z2 | G2   B2  d2 | g2   b2 d'2 |  c2  d2  D2   | Ggfe"^d.C."dc :|
